svgs/home_assistant.svg

<svg width="192" height="192" xmlns="http://www.w3.org/2000/svg"><circle style="fill:none;stroke:#000;stroke-width:8;stroke-linecap:round;stroke-linejoin:round;stroke-miterlimit:57.5;stroke-dasharray:none;paint-order:stroke markers fill" cx="138.935" cy="94.761" r="2.89"/><circle style="fill:none;stroke:#000;stroke-width:8;stroke-linecap:round;stroke-linejoin:round;stroke-miterlimit:57.5;stroke-dasharray:none;paint-order:stroke markers fill" cx="109.037" cy="69.595" r="2.89"/><circle style="fill:none;stroke:#000;stroke-width:8;stroke-linecap:round;stroke-linejoin:round;stroke-miterlimit:57.5;stroke-dasharray:none;paint-order:stroke markers fill" cx="137.888" cy="133.757" r="2.89"/><circle style="fill:none;stroke:#000;stroke-width:8;stroke-linecap:round;stroke-linejoin:round;stroke-miterlimit:57.5;stroke-dasharray:none;paint-order:stroke markers fill" cx="61.996" cy="132.322" r="2.89"/><circle style="fill:none;stroke:#000;stroke-width:8;stroke-linecap:round;stroke-linejoin:round;stroke-miterlimit:57.5;stroke-dasharray:none;paint-order:stroke markers fill" cx="110.026" cy="115.186" r="2.89"/><circle style="fill:none;stroke:#000;stroke-width:8;stroke-linecap:round;stroke-linejoin:round;stroke-miterlimit:57.5;stroke-dasharray:none;paint-order:stroke markers fill" cx="112.458" cy="94.72" r="2.89"/><circle style="fill:none;stroke:#000;stroke-width:8;stroke-linecap:round;stroke-linejoin:round;stroke-miterlimit:57.5;stroke-dasharray:none;paint-order:stroke markers fill" cx="125.374" cy="79.607" r="2.89"/><circle style="fill:none;stroke:#000;stroke-width:8;stroke-linecap:round;stroke-linejoin:round;stroke-miterlimit:57.5;stroke-dasharray:none;paint-order:stroke markers fill" cx="64.853" cy="153.467" r="2.89"/><circle style="fill:none;stroke:#000;stroke-width:8;stroke-linecap:round;stroke-linejoin:round;stroke-miterlimit:57.5;stroke-dasharray:none;paint-order:stroke markers fill" cx="127.496" cy="153.03" r="2.89"/><circle style="fill:none;stroke:#000;stroke-width:8;stroke-linecap:round;stroke-linejoin:round;stroke-miterlimit:57.5;stroke-dasharray:none;paint-order:stroke markers fill" cx="59.93" cy="112.288" r="2.89"/><circle style="fill:none;stroke:#000;stroke-width:8;stroke-linecap:round;stroke-linejoin:round;stroke-miterlimit:57.5;stroke-dasharray:none;paint-order:stroke markers fill" cx="77.818" cy="93.605" r="2.89"/><circle style="fill:none;stroke:#000;stroke-width:8;stroke-linecap:round;stroke-linejoin:round;stroke-miterlimit:57.5;stroke-dasharray:none;paint-order:stroke markers fill" cx="82.685" cy="134.983" r="2.89"/><path style="fill:none;stroke:#000;stroke-width:12;stroke-linecap:round;stroke-linejoin:round;stroke-miterlimit:57.5;paint-order:stroke markers fill" d="M39.36 104.743H21.9l74.377-73.748L170 104.81h-17.334M138.97 72.167V57.18h18.993v30.89m-6.257 16.78v61.451H40.22V104.85"/><path style="fill:none;stroke:#000;stroke-width:8;stroke-linecap:round;stroke-linejoin:round;stroke-miterlimit:57.5;stroke-dasharray:none;paint-order:stroke markers fill" d="M96.38 162.68V82.148m.88 63.952 28.232-27.444V85.163"/><path style="fill:none;stroke:#000;stroke-width:8;stroke-linecap:round;stroke-linejoin:round;stroke-miterlimit:57.5;stroke-dasharray:none;paint-order:stroke markers fill" d="m115.805 99.006 9.586 8.65 10.44-8.615m-25.613 21.379v12.899h22.16m-9.947 19.843h-12.53l-8.85 8.81m-9.408 1.503L65.797 136.05m17.002 4.453v13.23H70.322m25.541-24.166L62.34 96.22v-7.683m15.474 10.316v9.926m-12.577 3.766h11.29"/><circle style="fill:none;stroke:#000;stroke-width:8;stroke-linecap:round;stroke-linejoin:round;stroke-miterlimit:57.5;stroke-dasharray:none;paint-order:stroke markers fill" cx="83.232" cy="69.601" r="2.89"/><circle style="fill:none;stroke:#000;stroke-width:8;stroke-linecap:round;stroke-linejoin:round;stroke-miterlimit:57.5;stroke-dasharray:none;paint-order:stroke markers fill" cx="62.371" cy="83.205" r="2.89"/><path style="fill:none;stroke:#000;stroke-width:8;stroke-linecap:round;stroke-linejoin:round;stroke-miterlimit:57.5;stroke-dasharray:none;paint-order:stroke markers fill" d="m87.3 73.294 8.97 9.06 9.638-8.456"/></svg>

<svg width="192" height="192" xmlns="http://www.w3.org/2000/svg"><circle style="fill:none;stroke:#000;stroke-width:8;stroke-linecap:round;stroke-linejoin:round;stroke-miterlimit:57.5;stroke-dasharray:none;paint-order:stroke markers fill" cx="138.935" cy="94.761" r="2.89"/><circle style="fill:none;stroke:#000;stroke-width:8;stroke-linecap:round;stroke-linejoin:round;stroke-miterlimit:57.5;stroke-dasharray:none;paint-order:stroke markers fill" cx="109.037" cy="69.595" r="2.89"/><circle style="fill:none;stroke:#000;stroke-width:8;stroke-linecap:round;stroke-linejoin:round;stroke-miterlimit:57.5;stroke-dasharray:none;paint-order:stroke markers fill" cx="137.888" cy="133.757" r="2.89"/><circle style="fill:none;stroke:#000;stroke-width:8;stroke-linecap:round;stroke-linejoin:round;stroke-miterlimit:57.5;stroke-dasharray:none;paint-order:stroke markers fill" cx="61.996" cy="132.322" r="2.89"/><circle style="fill:none;stroke:#000;stroke-width:8;stroke-linecap:round;stroke-linejoin:round;stroke-miterlimit:57.5;stroke-dasharray:none;paint-order:stroke markers fill" cx="110.026" cy="115.186" r="2.89"/><circle style="fill:none;stroke:#000;stroke-width:8;stroke-linecap:round;stroke-linejoin:round;stroke-miterlimit:57.5;stroke-dasharray:none;paint-order:stroke markers fill" cx="112.458" cy="94.72" r="2.89"/><circle style="fill:none;stroke:#000;stroke-width:8;stroke-linecap:round;stroke-linejoin:round;stroke-miterlimit:57.5;stroke-dasharray:none;paint-order:stroke markers fill" cx="125.374" cy="79.607" r="2.89"/><circle style="fill:none;stroke:#000;stroke-width:8;stroke-linecap:round;stroke-linejoin:round;stroke-miterlimit:57.5;stroke-dasharray:none;paint-order:stroke markers fill" cx="64.853" cy="153.467" r="2.89"/><circle style="fill:none;stroke:#000;stroke-width:8;stroke-linecap:round;stroke-linejoin:round;stroke-miterlimit:57.5;stroke-dasharray:none;paint-order:stroke markers fill" cx="127.496" cy="153.03" r="2.89"/><circle style="fill:none;stroke:#000;stroke-width:8;stroke-linecap:round;stroke-linejoin:round;stroke-miterlimit:57.5;stroke-dasharray:none;paint-order:stroke markers fill" cx="59.93" cy="112.288" r="2.89"/><circle style="fill:none;stroke:#000;stroke-width:8;stroke-linecap:round;stroke-linejoin:round;stroke-miterlimit:57.5;stroke-dasharray:none;paint-order:stroke markers fill" cx="77.818" cy="93.605" r="2.89"/><circle style="fill:none;stroke:#000;stroke-width:8;stroke-linecap:round;stroke-linejoin:round;stroke-miterlimit:57.5;stroke-dasharray:none;paint-order:stroke markers fill" cx="82.685" cy="134.983" r="2.89"/><path style="fill:none;stroke:#000;stroke-width:12;stroke-linecap:round;stroke-linejoin:round;stroke-miterlimit:57.5;paint-order:stroke markers fill" d="M39.36 104.743H21.9l74.377-73.748L170 104.81h-17.334M138.97 72.167V57.18h18.993v30.89M151.706 104.85v61.451H40.22V104.85"/><path style="fill:none;stroke:#000;stroke-width:8;stroke-linecap:round;stroke-linejoin:round;stroke-miterlimit:57.5;stroke-dasharray:none;paint-order:stroke markers fill" d="M96.38 162.68V82.148M97.26 146.1l28.232-27.444V85.163"/><path style="fill:none;stroke:#000;stroke-width:8;stroke-linecap:round;stroke-linejoin:round;stroke-miterlimit:57.5;stroke-dasharray:none;paint-order:stroke markers fill" d="m115.805 99.006 9.586 8.65 10.44-8.615M110.218 120.42v12.899h22.16M122.431 153.162h-12.53l-8.85 8.81M91.643 163.475 65.797 136.05M82.799 140.503v13.23H70.322M95.863 129.567 62.34 96.22v-7.683M77.814 98.853v9.926M65.237 112.545h11.29"/><circle style="fill:none;stroke:#000;stroke-width:8;stroke-linecap:round;stroke-linejoin:round;stroke-miterlimit:57.5;stroke-dasharray:none;paint-order:stroke markers fill" cx="83.232" cy="69.601" r="2.89"/><circle style="fill:none;stroke:#000;stroke-width:8;stroke-linecap:round;stroke-linejoin:round;stroke-miterlimit:57.5;stroke-dasharray:none;paint-order:stroke markers fill" cx="62.371" cy="83.205" r="2.89"/><path style="fill:none;stroke:#000;stroke-width:8;stroke-linecap:round;stroke-linejoin:round;stroke-miterlimit:57.5;stroke-dasharray:none;paint-order:stroke markers fill" d="m87.3 73.294 8.97 9.06 9.638-8.456"/></svg>
